media/img/mob-icon-noun-calendar.svg

<svg width="59" height="56" viewBox="0 0 59 56" fill="none" xmlns="http://www.w3.org/2000/svg">
<g clip-path="url(#clip0_623_4439)">
<path d="M11.5664 2.67469C11.5664 -0.853804 16.7736 -0.853804 16.7736 2.67469V12.8885C16.7736 16.417 11.5664 16.417 11.5664 12.8885V2.67469Z" fill="white"/>
<path d="M47.2736 2.67469C47.2736 -0.853804 42.0664 -0.853804 42.0664 2.67469V12.8885C42.0664 16.417 47.2736 16.417 47.2736 12.8885V2.67469Z" fill="white"/>
<path fill-rule="evenodd" clip-rule="evenodd" d="M58.9887 24.96V46.5025C58.9887 51.7026 54.7116 55.9739 49.5045 55.9739H9.52139C4.3142 55.9739 0.0371094 51.7026 0.0371094 46.5025V24.96H58.9887Z" fill="white"/>
<path fill-rule="evenodd" clip-rule="evenodd" d="M9.52121 7.875V12.8894C9.52121 19.018 18.8196 19.018 18.8196 12.8894V7.875H40.0196V12.8894C40.0196 19.2036 49.5039 19.2036 49.5039 12.8894V7.875C54.7111 7.875 58.9882 12.1463 58.9882 17.3464V22.3608H0.0361328V17.3464C0.0361328 11.9607 4.31322 7.875 9.52041 7.875H9.52121Z" fill="white"/>
</g>
<defs>
<clipPath id="clip0_623_4439">
<rect width="59" height="56" fill="white"/>
</clipPath>
</defs>
</svg>

<svg width="59" height="56" viewBox="0 0 59 56" fill="none" xmlns="http://www.w3.org/2000/svg"><g clip-path="url(#clip0_623_4439)" fill="#fff"><path d="M11.566 2.675c0-3.529 5.208-3.529 5.208 0v10.213c0 3.529-5.208 3.529-5.208 0V2.676zm35.708 0c0-3.529-5.208-3.529-5.208 0v10.213c0 3.529 5.208 3.529 5.208 0V2.676z"/><path fill-rule="evenodd" clip-rule="evenodd" d="M58.989 24.96v21.542c0 5.2-4.277 9.472-9.484 9.472H9.52c-5.207 0-9.484-4.271-9.484-9.471V24.96H58.99zM9.521 7.875v5.014c0 6.129 9.299 6.129 9.299 0V7.875h21.2v5.014c0 6.315 9.484 6.315 9.484 0V7.875c5.207 0 9.484 4.271 9.484 9.471v5.015H.036v-5.015c0-5.385 4.277-9.471 9.484-9.471h.001z"/></g><defs><clipPath id="clip0_623_4439"><path fill="#fff" d="M0 0h59v56H0z"/></clipPath></defs></svg>
